icons/evolvere-blue-folders-flat-vivid-dark-fallback/mimetypes/64/package-tar.xz.svg

<?xml version="1.0" encoding="UTF-8" standalone="no"?>
<!-- Created with Inkscape (http://www.inkscape.org/) -->

<svg
   xmlns:dc="http://purl.org/dc/elements/1.1/"
   xmlns:cc="http://creativecommons.org/ns#"
   xmlns:rdf="http://www.w3.org/1999/02/22-rdf-syntax-ns#"
   xmlns:svg="http://www.w3.org/2000/svg"
   xmlns="http://www.w3.org/2000/svg"
   xmlns:xlink="http://www.w3.org/1999/xlink"
   xmlns:sodipodi="http://sodipodi.sourceforge.net/DTD/sodipodi-0.dtd"
   xmlns:inkscape="http://www.inkscape.org/namespaces/inkscape"
   version="1.1"
   width="64"
   height="64"
   id="svg13094"
   inkscape:version="0.91+devel r"
   sodipodi:docname="package-tar.xz.svg">
  <sodipodi:namedview
     pagecolor="#ffffff"
     bordercolor="#666666"
     borderopacity="1"
     objecttolerance="10"
     gridtolerance="10"
     guidetolerance="10"
     inkscape:pageopacity="0"
     inkscape:pageshadow="2"
     inkscape:window-width="1920"
     inkscape:window-height="1023"
     id="namedview44"
     showgrid="false"
     inkscape:zoom="10.429825"
     inkscape:cx="12.499628"
     inkscape:cy="35.873641"
     inkscape:window-x="-10"
     inkscape:window-y="35"
     inkscape:window-maximized="1"
     inkscape:current-layer="svg13094" />
  <defs
     id="defs11">
    <radialGradient
       cx="59.89941"
       cy="2.0516231"
       r="32"
       id="radialGradient3857-3"
       gradientUnits="userSpaceOnUse"
       gradientTransform="matrix(-2.298935e-8,1.2105557,-1.4259153,-2.7079188e-8,49.162732,-22.737782)">
      <stop
         id="stop3853-0"
         style="stop-color:#ffe78d;stop-opacity:0.28918746;"
         offset="0" />
      <stop
         id="stop3855-4"
         style="stop-color:#ffea90;stop-opacity:0;"
         offset="1" />
    </radialGradient>
    <radialGradient
       cx="21.792179"
       cy="49.22028"
       r="16"
       id="radialGradient3849-2"
       xlink:href="#linearGradient3817-8"
       gradientUnits="userSpaceOnUse"
       gradientTransform="matrix(-1.9776652e-8,-1.4375,-1.4375,-1.329812e-5,94.8125,87.43807)" />
    <linearGradient
       id="linearGradient3817-8">
      <stop
         id="stop3819-6"
         style="stop-color:#000000;stop-opacity:0.1222009;"
         offset="0" />
      <stop
         id="stop3821-9"
         style="stop-color:#000000;stop-opacity:0;"
         offset="1" />
    </linearGradient>
    <radialGradient
       cx="23.236361"
       cy="39.32011"
       r="16"
       id="radialGradient3837-7-2"
       xlink:href="#linearGradient3817-8"
       gradientUnits="userSpaceOnUse"
       gradientTransform="matrix(-1.3019008e-5,-1.4052387,-1.4052387,0,93.472788,86.44508)" />
    <radialGradient
       cx="34.96587"
       cy="40.56699"
       r="16"
       id="radialGradient3841-0"
       xlink:href="#linearGradient3817-8"
       gradientUnits="userSpaceOnUse"
       gradientTransform="matrix(-2.096279e-8,-1.0659693,-2.725932,-3.7493971e-5,131.57524,70.22225)" />
    <radialGradient
       cx="43.7145"
       cy="28.35227"
       r="16"
       id="radialGradient3845-6"
       xlink:href="#linearGradient3817-8"
       gradientUnits="userSpaceOnUse"
       gradientTransform="matrix(-2.1712014e-5,-2.2165482,-2.2165484,0,97.970716,124.16221)" />
    <radialGradient
       cx="29.99848"
       cy="52.804661"
       r="16"
       id="radialGradient3823-6"
       xlink:href="#linearGradient3817-8"
       gradientUnits="userSpaceOnUse"
       gradientTransform="matrix(1.9776652e-8,-0.44005103,1.4375,-4.0708531e-6,-30.8125,22.174921)" />
    <radialGradient
       cx="29.0648"
       cy="42.199619"
       r="16"
       id="radialGradient3829-2"
       xlink:href="#linearGradient3817-8"
       gradientUnits="userSpaceOnUse"
       gradientTransform="matrix(1.9776659e-8,-0.44005103,1.4375,-4.0708531e-6,-30.8125,22.174921)" />
    <radialGradient
       cx="46.159752"
       cy="36.935829"
       r="16"
       id="radialGradient3825-8"
       xlink:href="#linearGradient3817-8"
       gradientUnits="userSpaceOnUse"
       gradientTransform="matrix(2.096279e-8,-0.32631713,2.725932,-1.1477746e-5,-67.57524,16.90477)" />
    <radialGradient
       cx="47.140202"
       cy="17.89163"
       r="16"
       id="radialGradient3827-6"
       xlink:href="#linearGradient3817-8"
       gradientUnits="userSpaceOnUse"
       gradientTransform="matrix(2.1712014e-5,-0.67853516,2.2165484,0,-33.970716,33.417004)" />
  </defs>
  <metadata
     id="metadata13099">
    <rdf:RDF>
      <cc:Work
         rdf:about="">
        <dc:format>image/svg+xml</dc:format>
        <dc:type
           rdf:resource="http://purl.org/dc/dcmitype/StillImage" />
        <dc:title></dc:title>
      </cc:Work>
    </rdf:RDF>
  </metadata>
  <path
     d="M 0,1 2,0 62,0 64,1 64,17 0,17 Z"
     id="path3029"
     style="fill:#d8bd6f;fill-opacity:1;fill-rule:nonzero"
     inkscape:connector-curvature="0"
     sodipodi:nodetypes="ccccccc" />
  <path
     d="m 0,16 64,0 0,46 -2,2 -60,0 -2,-2 z"
     id="path3809"
     style="color:#000000;display:inline;overflow:visible;visibility:visible;fill:#a07c46;fill-opacity:1;fill-rule:nonzero;stroke-width:1;stroke-linecap:butt;stroke-linejoin:miter;stroke-miterlimit:4;stroke-dasharray:none;stroke-dashoffset:0;stroke-opacity:1;marker:none;enable-background:accumulate"
     inkscape:connector-curvature="0"
     sodipodi:nodetypes="ccccccc" />
  <path
     d="m 0,16 64,0 0,46 -2,2 -60,0 -2,-2 z"
     id="path3831"
     style="fill:#a6854c;fill-opacity:1;fill-rule:nonzero"
     inkscape:connector-curvature="0"
     sodipodi:nodetypes="ccccccc" />
  <path
     d="m 0,62 2,2 30,0 0,-24 -32,0 z"
     id="path3847"
     style="fill:#9c7a44;fill-opacity:1;fill-rule:nonzero;opacity:1;stroke-width:1;stroke-linecap:butt;stroke-linejoin:miter;stroke-miterlimit:4;stroke-dasharray:none;stroke-dashoffset:0;stroke-opacity:1"
     inkscape:connector-curvature="0"
     sodipodi:nodetypes="cccccc" />
  <path
     d="m 64,62 -2,2 -30,0 0,-24 32,0 z"
     id="path3835"
     style="fill:#9c7a44;fill-opacity:1;fill-rule:nonzero;opacity:1;stroke-width:1;stroke-linecap:butt;stroke-linejoin:miter;stroke-miterlimit:4;stroke-dasharray:none;stroke-dashoffset:0;stroke-opacity:1"
     inkscape:connector-curvature="0"
     sodipodi:nodetypes="cccccc" />
  <path
     d="m 0,16 32,0 0,24 -32,0 z"
     id="path3839"
     style="fill:#9c7a44;fill-opacity:1;fill-rule:nonzero;opacity:1;stroke-width:1;stroke-linecap:butt;stroke-linejoin:miter;stroke-miterlimit:4;stroke-dasharray:none;stroke-dashoffset:0;stroke-opacity:1"
     inkscape:connector-curvature="0"
     sodipodi:nodetypes="ccccc" />
  <path
     d="m 64,16 -32,0 0,24 32,0 z"
     id="path3843"
     style="fill:#9c7a44;fill-opacity:1;fill-rule:nonzero;opacity:1;stroke-width:1;stroke-linecap:butt;stroke-linejoin:miter;stroke-miterlimit:4;stroke-dasharray:none;stroke-dashoffset:0;stroke-opacity:1"
     inkscape:connector-curvature="0"
     sodipodi:nodetypes="ccccc" />
  <path
     d="m 64,16 -32,0 0,-7.846939 32,0 z"
     id="path3813"
     style="fill:#d7b871;fill-opacity:1;fill-rule:nonzero"
     inkscape:connector-curvature="0"
     sodipodi:nodetypes="ccccc" />
  <path
     d="m 0,16 32,0 0,-7.846939 -32,0 z"
     id="path3811"
     style="fill:#d2b164;fill-opacity:1;fill-rule:nonzero"
     inkscape:connector-curvature="0"
     sodipodi:nodetypes="ccccc" />
  <path
     d="m 64,1 -2,-1 -30,0 0,8.153061 32,0 z"
     id="path3815"
     style="fill:#d2b164;fill-opacity:1;fill-rule:nonzero"
     inkscape:connector-curvature="0"
     sodipodi:nodetypes="cccccc" />
  <path
     d="m 0,1 2,-1 30,0 0,8.153061 -32,0 z"
     id="path3960"
     style="fill:#d7b871;fill-opacity:1;fill-rule:nonzero"
     inkscape:connector-curvature="0"
     sodipodi:nodetypes="cccccc" />
  <path
     d="m 64,18 -2,-2 2,-1 z"
     id="path3028"
     style="fill:#ba9c59;fill-opacity:1"
     inkscape:connector-curvature="0"
     sodipodi:nodetypes="cccc" />
  <path
     d="M 0,18 2,16 0,15 Z"
     id="path3028-3"
     style="fill:#dbc071;fill-opacity:1"
     inkscape:connector-curvature="0"
     sodipodi:nodetypes="cccc" />
  <path
     id="path3340"
     d="m 28.28125,20 0,1 0,13.09375 2.5625,0 0,-6.03125 2.1875,0 c 0.61439,0 0.98494,-0.0064 1.09375,0 0.14719,0.2432 0.53545,1.02537 1.15625,2.34375 l 1.625,3.6875 2.375,0 0.46875,0 L 37.65625,29.75 c -0.277613,-0.572554 -0.522698,-1.0017 -0.75,-1.375 -0.191918,-0.315189 -0.37304,-0.602526 -0.53125,-0.78125 1.504118,-0.522185 2.332107,-1.564577 2.5,-3.09375 0.02141,-0.195048 0.03125,-0.382348 0.03125,-0.59375 -1e-5,-0.63358 -0.07721,-1.19544 -0.25,-1.65625 -0.16641,-0.46718 -0.39311,-0.83699 -0.6875,-1.125 C 37.68074,20.83702 37.28608,20.60391 36.8125,20.4375 36.3453,20.26472 35.86854,20.15776 35.34375,20.09375 34.82535,20.02976 34.21039,20.00001 33.5,20 l -5.21875,0 z m 13.9375,0 0.65625,1 1.9375,2.90625 -0.34375,0.5 -2.46875,3.625 0.6875,0 0.9375,0 2.0625,-3.125 2.03125,3.125 1.03125,0 0.6875,0 L 47,24.4375 46.65625,23.9375 48.625,21 l 0.6875,-1 -1.59375,0 -1.9375,3 -1.90625,-3 -1.65625,0 z m 7.9375,0 0,1 0,0.1875 4.09375,0 -0.71875,1 -3.53125,4.875 0,0.96875 0.03125,0 6,0 0,-0.1875 0,-1 -3.46875,0 -0.71875,0 L 56,21.09375 56,21 56,20 50.15625,20 z M 5.25,20.03125 l 0,1 0,1.09375 4.09375,0 0,11.96875 2.625,0 0,-11.96875 4.0625,0 0,-1.09375 0,-1 -10.78125,0 z m 14.34375,0 -5.1875,14.0625 0.375,0 2.34375,0 1.40625,-3.96875 4.9375,0 1.375,3.96875 2.3125,0 0.375,0 -5.09375,-14.0625 -2.84375,0 z m 11.25,1.90625 3,0 c 0.90878,10e-6 1.58965,0.14236 2.03125,0.46875 0.44159,0.32641 0.65624,0.84007 0.65625,1.53125 -3e-6,0.1968 -0.0037,0.392466 -0.03125,0.5625 -0.02064,0.127525 -0.05678,0.23244 -0.09375,0.34375 -0.01264,0.03993 -0.01669,0.08696 -0.03125,0.125 -0.02667,0.06539 -0.06112,0.128007 -0.09375,0.1875 -0.03519,0.06753 -0.08255,0.127172 -0.125,0.1875 -0.02085,0.02866 -0.04002,0.0667 -0.0625,0.09375 -0.06545,0.08033 -0.138805,0.152913 -0.21875,0.21875 -0.4352,0.35201 -1.15787,0.53126 -2.15625,0.53125 l -1.4375,0 c -0.8576,-0.0064 -1.34151,10e-6 -1.4375,0 l 0,-4.25 z m -9.8125,0.53125 c 0.03199,0.12161 0.62925,2.02599 1.78125,5.71875 l -0.3125,0 -3,0 -0.3125,0 1.84375,-5.71875 z"
     style="color:#000000;fill:#efe3b6;fill-opacity:1;fill-rule:nonzero;stroke-width:1;stroke-linecap:butt;stroke-linejoin:miter;stroke-miterlimit:4;stroke-opacity:1;stroke-dasharray:none;stroke-dashoffset:0;marker:none;visibility:visible;display:inline;overflow:visible;enable-background:accumulate;opacity:1"
     inkscape:connector-curvature="0" />
  <path
     style="color:#000000;fill:#642400;fill-opacity:0.14042933;fill-rule:nonzero;stroke-width:1;stroke-linecap:butt;stroke-linejoin:miter;stroke-miterlimit:4;stroke-opacity:1;stroke-dasharray:none;stroke-dashoffset:0;marker:none;visibility:visible;display:inline;overflow:visible;enable-background:accumulate;opacity:1"
     d="M 44.5 21 L 45.78125 23 L 45.96875 22.71875 L 44.875 21 L 44.5 21 z M 48.71875 21 L 46.78125 24 L 46.6875 23.875 L 46.65625 23.9375 L 47 24.4375 L 49.4375 28.03125 L 48.75 28.03125 L 48.0625 28.03125 L 48.71875 29.03125 L 49.75 29.03125 L 50.4375 29.03125 L 48 25.4375 L 47.65625 24.9375 L 49.625 22 L 50.1875 21.1875 L 50.15625 21.1875 L 50.15625 21 L 48.71875 21 z M 56 21 L 56 21.09375 L 55.21875 22.1875 L 55.25 22.1875 L 54.53125 23.1875 L 51.875 26.84375 L 52.5625 26.84375 L 53.5625 26.84375 L 57 22.09375 L 57 22 L 57 21 L 56 21 z M 16.03125 21.03125 L 16.03125 22.125 L 11.96875 22.125 L 11.96875 34.09375 L 10.34375 34.09375 L 10.34375 35.09375 L 12.96875 35.09375 L 12.96875 23.125 L 17.03125 23.125 L 17.03125 22.03125 L 17.03125 21.03125 L 16.03125 21.03125 z M 22.8125 21.03125 L 27.53125 34.09375 L 27.15625 34.09375 L 25.5 34.09375 L 25.84375 35.09375 L 28.15625 35.09375 L 28.53125 35.09375 L 23.4375 21.03125 L 22.8125 21.03125 z M 51.15625 21.1875 L 51.15625 22 L 51.15625 22.1875 L 53.53125 22.1875 L 54.25 21.1875 L 51.15625 21.1875 z M 38.40625 21.71875 C 38.500217 21.884335 38.584981 22.049919 38.65625 22.25 C 38.82904 22.71081 38.90624 23.27267 38.90625 23.90625 C 38.90625 24.117652 38.89641 24.304952 38.875 24.5 C 38.707107 26.029173 37.879118 27.071565 36.375 27.59375 C 36.53321 27.772474 36.714332 28.059811 36.90625 28.375 C 37.133552 28.7483 37.378637 29.177446 37.65625 29.75 L 39.75 34.09375 L 39.28125 34.09375 L 37.46875 34.09375 L 37.90625 35.09375 L 40.28125 35.09375 L 40.75 35.09375 L 38.65625 30.75 C 38.378637 30.177446 38.133552 29.7483 37.90625 29.375 C 37.714332 29.059811 37.53321 28.772474 37.375 28.59375 C 38.879118 28.071565 39.707107 27.029173 39.875 25.5 C 39.89641 25.304952 39.90625 25.117652 39.90625 24.90625 C 39.90624 24.27267 39.82904 23.71081 39.65625 23.25 C 39.48984 22.78282 39.26314 22.41301 38.96875 22.125 C 38.810903 21.96717 38.6236 21.84167 38.40625 21.71875 z M 30.84375 21.9375 L 30.84375 26.1875 C 30.910526 26.187507 31.406311 26.187233 31.84375 26.1875 L 31.84375 22.9375 L 34.84375 22.9375 C 35.479142 22.937507 35.997563 23.002828 36.40625 23.15625 C 36.300108 22.84609 36.129213 22.594156 35.875 22.40625 C 35.4334 22.07986 34.75253 21.93751 33.84375 21.9375 L 30.84375 21.9375 z M 6.25 22.125 L 6.25 23.125 L 9.34375 23.125 L 9.34375 22.125 L 6.25 22.125 z M 21.03125 22.46875 L 19.1875 28.1875 L 19.5 28.1875 L 20.5 28.1875 L 21.6875 24.5625 C 21.524588 24.039205 21.042969 22.513299 21.03125 22.46875 z M 45.75 25 L 45.46875 25.40625 L 43 29.03125 L 43.6875 29.03125 L 44.625 29.03125 L 46.5 26.1875 L 45.75 25 z M 56.03125 27.84375 L 56.03125 28.03125 L 51.03125 28.03125 L 51 28.0625 L 51 29.03125 L 51.03125 29.03125 L 57.03125 29.03125 L 57.03125 28.84375 L 57.03125 27.84375 L 56.03125 27.84375 z M 30.84375 28.0625 L 30.84375 34.09375 L 29.28125 34.09375 L 29.28125 35.09375 L 31.84375 35.09375 L 31.84375 29.0625 L 34.03125 29.0625 C 34.364776 29.0625 34.438054 29.063201 34.625 29.0625 C 34.474465 28.761404 34.187967 28.16654 34.125 28.0625 C 34.01619 28.0561 33.64564 28.0625 33.03125 28.0625 L 30.84375 28.0625 z M 18.53125 30.125 L 17.125 34.09375 L 15.78125 34.09375 L 15.40625 35.09375 L 15.78125 35.09375 L 18.125 35.09375 L 19.53125 31.125 L 23.8125 31.125 L 23.46875 30.125 L 18.53125 30.125 z "
     id="path3816" />
</svg>

<svg xmlns="http://www.w3.org/2000/svg" viewBox="0 0 64 64"><path d="m0 1l2-1h60l2 1v16h-64" fill="#d8bd6f"/><path d="m0 16h64v46l-2 2h-60l-2-2z" fill="#a07c46" color="#000"/><path d="m0 16h64v46l-2 2h-60l-2-2z" fill="#a6854c"/><g fill="#9c7a44"><path d="m0 62l2 2h30v-24h-32z"/><path d="m64 62l-2 2h-30v-24h32z"/><path d="m0 16h32v24h-32z"/><path d="m64 16h-32v24h32z"/></g><path d="m64 16h-32v-7.847h32z" fill="#d7b871"/><g fill="#d2b164"><path d="m0 16h32v-7.847h-32z"/><path d="m64 1l-2-1h-30v8.153h32z"/></g><path d="m0 1l2-1h30v8.153h-32z" fill="#d7b871"/><path d="m64 18l-2-2 2-1z" fill="#ba9c59"/><path d="m0 18l2-2-2-1" fill="#dbc071"/><g color="#000"><path d="m28.28 20v1 13.09h2.563v-6.03h2.188c.614 0 .985-.006 1.094 0 .147.243.535 1.025 1.156 2.344l1.625 3.688h2.375.469l-2.094-4.344c-.278-.573-.523-1-.75-1.375-.192-.315-.373-.603-.531-.781 1.504-.522 2.332-1.565 2.5-3.094.021-.195.031-.382.031-.594 0-.634-.077-1.195-.25-1.656-.166-.467-.393-.837-.688-1.125-.288-.288-.683-.521-1.156-.688-.467-.173-.944-.28-1.469-.344-.518-.064-1.133-.094-1.844-.094h-5.219m13.938 0l.656 1 1.938 2.906-.344.5-2.469 3.625h.688.938l2.063-3.125 2.031 3.125h1.031.688l-2.438-3.594-.344-.5 1.969-2.938.688-1h-1.594l-1.938 3-1.906-3h-1.656m7.938 0v1 .188h4.094l-.719 1-3.531 4.875v.969h.031 6v-.188-1h-3.469-.719l4.156-5.75v-.094-1h-5.844m-44.906.031v1 1.094h4.094v11.969h2.625v-11.969h4.063v-1.094-1h-10.781m14.344 0l-5.188 14.06h.375 2.344l1.406-3.969h4.938l1.375 3.969h2.313.375l-5.094-14.06h-2.844m11.25 1.906h3c.909 0 1.59.142 2.031.469.442.326.656.84.656 1.531 0 .197-.004.392-.031.563-.021.128-.057.232-.094.344-.013.04-.017.087-.031.125-.027.065-.061.128-.094.188-.035.068-.083.127-.125.188-.021.029-.04.067-.063.094-.065.08-.139.153-.219.219-.435.352-1.158.531-2.156.531h-1.438c-.858-.006-1.342 0-1.438 0v-4.25m-9.813.531c.032.122.629 2.026 1.781 5.719h-.313-3-.313l1.844-5.719" fill="#efe3b6"/><path d="m44.5 21l1.281 2 .188-.281-1.094-1.719h-.375m4.219 0l-1.938 3-.094-.125-.031.063.344.5 2.438 3.594h-.688-.688l.656 1h1.031.688l-2.438-3.594-.344-.5 1.969-2.938.563-.813h-.031v-.188h-1.438m7.281 0v.094l-.781 1.094h.031l-.719 1-2.656 3.656h.688 1l3.438-4.75v-.094-1h-1m-39.969.031v1.094h-4.063v11.969h-1.625v1h2.625v-11.969h4.063v-1.094-1h-1m6.781 0l4.719 13.06h-.375-1.656l.344 1h2.313.375l-5.094-14.06h-.625m28.344.156v.813.188h2.375l.719-1h-3.094m-12.75.531c.094.166.179.331.25.531.173.461.25 1.023.25 1.656 0 .211-.01.399-.031.594-.168 1.529-.996 2.572-2.5 3.094.158.179.339.466.531.781.227.373.472.802.75 1.375l2.094 4.344h-.469-1.813l.438 1h2.375.469l-2.094-4.344c-.278-.573-.523-1-.75-1.375-.192-.315-.373-.603-.531-.781 1.504-.522 2.332-1.565 2.5-3.094.021-.195.031-.382.031-.594 0-.634-.077-1.195-.25-1.656-.166-.467-.393-.837-.688-1.125-.158-.158-.345-.283-.563-.406m-7.563.219v4.25c.067 0 .563 0 1 0v-3.25h3c.635 0 1.154.065 1.563.219-.106-.31-.277-.562-.531-.75-.442-.326-1.122-.469-2.031-.469h-3m-24.594.188v1h3.094v-1h-3.094m14.781.344l-1.844 5.719h.313 1l1.188-3.625c-.163-.523-.645-2.049-.656-2.094m24.719 2.531l-.281.406-2.469 3.625h.688.938l1.875-2.844-.75-1.188m10.281 2.844v.188h-5l-.031.031v.969h.031 6v-.188-1h-1m-25.19.219v6.03h-1.563v1h2.563v-6.03h2.188c.334 0 .407.001.594 0-.151-.301-.437-.896-.5-1-.109-.006-.479 0-1.094 0h-2.188m-12.313 2.063l-1.406 3.969h-1.344l-.375 1h.375 2.344l1.406-3.969h4.281l-.344-1h-4.938" fill="#642400" fill-opacity=".14"/></g></svg>
